icons/bag-circle-cross.svg

<svg xmlns="http://www.w3.org/2000/svg" viewBox="0 0 24 24" fill="currentColor">
  <path d="M14.2803 2.35737c.2929.29289.2929.76776 0 1.06066L13.0607 4.6377l1.2196 1.21967c.2929.29289.2929.76776 0 1.06066-.2929.29289-.7677.29289-1.0606 0L12 5.69836l-1.2197 1.21967c-.2929.29289-.7677.29289-1.06063 0-.29289-.2929-.29289-.76777 0-1.06066L10.9393 4.6377 9.71967 3.41803c-.29289-.2929-.29289-.76777 0-1.06066.29293-.2929.76773-.2929 1.06063 0L12 3.57703l1.2197-1.21966c.2929-.2929.7677-.2929 1.0606 0Zm-8.09995 2.8999c.2929.29289.2929.76776 0 1.06066-3.07488 3.07488-3.20165 8.00477-.3803 11.23267v-3.4631c0-2.0142 1.63581-3.65 3.65002-3.65H14.55c2.0143 0 3.6501 1.6358 3.6501 3.65v3.463c2.8213-3.2279 2.6945-8.15771-.3804-11.23257-.2929-.2929-.2929-.76777 0-1.06066.2929-.2929.7678-.2929 1.0607 0 3.7929 3.79289 3.7929 9.96773 0 13.76063-3.7929 3.7929-9.96781 3.7929-13.76071 0-3.79289-3.7929-3.79289-9.96774 0-13.76063.2929-.2929.76777-.2929 1.06066 0ZM16.7001 18.8946c-2.8126 1.9573-6.5874 1.9573-9.40005 0v-4.8071c0-1.1858.96424-2.15 2.15002-2.15H14.55c1.1858 0 2.1501.9642 2.1501 2.15v4.8071Zm-6.1973-4.7139c-.2799-.3053-.7543-.326-1.05964-.0461-.30534.2799-.32596.7544-.04607 1.0597 1.40951 1.5377 3.80371 1.503 5.28321.0235.2929-.2929.2929-.7677 0-1.0606-.2929-.2929-.7678-.2929-1.0607 0-.9205.9205-2.3263.8858-3.1168.0235Z"/>
</svg>

<svg width="24" height="24" viewBox="0 0 24 24" fill="none" xmlns="http://www.w3.org/2000/svg">
<path fill-rule="evenodd" clip-rule="evenodd" d="M14.2803 2.35737C14.5732 2.65026 14.5732 3.12513 14.2803 3.41803L13.0607 4.6377L14.2803 5.85737C14.5732 6.15026 14.5732 6.62513 14.2803 6.91803C13.9874 7.21092 13.5126 7.21092 13.2197 6.91803L12 5.69836L10.7803 6.91803C10.4874 7.21092 10.0126 7.21092 9.71967 6.91803C9.42678 6.62513 9.42678 6.15026 9.71967 5.85737L10.9393 4.6377L9.71967 3.41803C9.42678 3.12513 9.42678 2.65026 9.71967 2.35737C10.0126 2.06447 10.4874 2.06447 10.7803 2.35737L12 3.57703L13.2197 2.35737C13.5126 2.06447 13.9874 2.06447 14.2803 2.35737ZM6.18035 5.25727C6.47325 5.55016 6.47325 6.02503 6.18035 6.31793C3.10547 9.39281 2.9787 14.3227 5.80005 17.5506V14.0875C5.80005 12.0733 7.43586 10.4375 9.45007 10.4375H14.55C16.5643 10.4375 18.2001 12.0733 18.2001 14.0875V17.5505C21.0214 14.3226 20.8946 9.39279 17.8197 6.31793C17.5268 6.02503 17.5268 5.55016 17.8197 5.25727C18.1126 4.96437 18.5875 4.96437 18.8804 5.25727C22.6733 9.05016 22.6733 15.225 18.8804 19.0179C15.0875 22.8108 8.91259 22.8108 5.11969 19.0179C1.3268 15.225 1.3268 9.05016 5.11969 5.25727C5.41259 4.96437 5.88746 4.96437 6.18035 5.25727ZM16.7001 18.8946C13.8875 20.8519 10.1127 20.8519 7.30005 18.8946V14.0875C7.30005 12.9017 8.26429 11.9375 9.45007 11.9375H14.55C15.7358 11.9375 16.7001 12.9017 16.7001 14.0875V18.8946ZM10.5028 14.1807C10.2229 13.8754 9.7485 13.8547 9.44316 14.1346C9.13782 14.4145 9.1172 14.889 9.39709 15.1943C10.8066 16.732 13.2008 16.6973 14.6803 15.2178C14.9732 14.9249 14.9732 14.4501 14.6803 14.1572C14.3874 13.8643 13.9125 13.8643 13.6196 14.1572C12.6991 15.0777 11.2933 15.043 10.5028 14.1807Z" fill="black"/>
</svg>
